!!!!SEGMENT: pl-wtm--r-995--001_krogulski-jozef-msza-pasterska-kyrie.krn
!!!id: 18xx:2083
!!!COM: Krogulski, Józef Władysław
!!!OTL: Msza pasterska – Kyrie
!!!PDT:
!!!SMS-siglum: PL-Wtm
!!!SMS-shelfmark: R 995
!!!NIFC-rismID: 1001083272
!!!URL-scan: http://repozytorium.nifc.pl/skany/pl-wtm-nut--r995
!!!ONB-nifc: UWAGA: części Mszy: 1. Kyrie, 2. Gloria, 3. Graduale, 4. Credo, 5. Offertorium, 6. Sanctus, 7. Benedictus, 8. Agnus Dei, 9. Dona nobis
!!!OMD: Allegretto.
!!!SMS-variant:
!!!SMS-altvar:
**kern	**kern	**dynam	**kern	**text	**dynam	**kern	**text	**dynam	**kern	**text	**dynam	**kern	**text	**dynam
*part5	*part5	*part5	*part4	*part4	*part4	*part3	*part3	*part3	*part2	*part2	*part2	*part1	*part1	*part1
*staff6	*staff5	*	*staff4	*staff4	*	*staff3	*staff3	*	*staff2	*staff2	*	*staff1	*staff1	*
*I"Organ	*I"Organ	*	*I"Baſso	*	*	*I"Tenore	*	*	*I"Soprano 2.	*	*	*I"Soprano 1.	*	*
*I'org	*I'org	*	*I'B	*	*	*I'T	*	*	*I'S 2	*	*	*I'S 1	*	*
*clefF4	*clefG2	*	*clefF4	*	*	*clefG2	*	*	*clefG2	*	*	*clefG2	*	*
*	*	*	*	*	*	*ITrd8c12	*	*	*	*	*	*	*	*
*k[]	*k[]	*	*k[]	*	*	*k[]	*	*	*k[]	*	*	*k[]	*	*
*M6/8	*M6/8	*	*M6/8	*	*	*M6/8	*	*	*M6/8	*	*	*M6/8	*	*
=1	=1	=1	=1	=1	=1	=1	=1	=1	=1	=1	=1	=1	=1	=1
*	*all\right	*	*all\right	*	*	*all\right	*	*	*all\right	*	*	*all\right	*	*
*	*^	*	*	*	*	*	*	*	*	*	*	*	*	*
!	!	!	!LO:DY:b:rj	!	!	!LO:DY:b:rj	!	!	!LO:DY:b:rj	!	!	!LO:DY:b:rj	!	!	!LO:DY:b:rj
[2.C [2.CC/	4cc/	4.e\	p	[2.C/	Ky-	p	4.G/	Ky-	p	4.e/	Ky-	p	(4cc\	Ky-	p
.	8b/	.	.	.	.	.	.	.	.	.	.	.	8b\	.	.
.	4a/	4.e\	.	.	.	.	4A/	.	.	4.f/	-ri-	.	4a\	.	.
.	8b/	.	.	.	.	.	8d\	.	.	.	.	.	8b\	.	.
*	*v	*v	*	*	*	*	*	*	*	*	*	*	*	*	*
=2	=2	=2	=2	=2	=2	=2	=2	=2	=2	=2	=2	=2	=2	=2
2.C_ 2.CC/_	4cc 4e/	.	2.C/_	.	.	4e\	.	.	4.e/	-e	.	4cc\)	.	.
.	8ee 8cc\	.	.	.	.	8c\	-ri-	.	.	.	.	8ee\	-ri-	.
.	[4.gg 4.ee\	.	.	.	.	4G/	-e	.	4.e/	e-	.	4gg\	-e	.
.	.	.	.	.	.	8G/	e-	.	.	.	.	8gg\	e-	.
=3	=3	=3	=3	=3	=3	=3	=3	=3	=3	=3	=3	=3	=3	=3
*	*^	*	*	*	*	*	*	*	*	*	*	*	*	*
2.C_ 2.CC/_	8gg/L]	4.a\	.	4.C/]	.	.	[4.A/	-ley-	.	(2.f/	-ley-	.	8gg\L	-ley-	.
.	8ff/	.	.	.	.	.	.	.	.	.	.	.	8ff\	.	.
.	8ee/J	.	.	.	.	.	.	.	.	.	.	.	8ee\J	.	.
.	8dd/L	4.f\	.	4.C/	-ri-	.	4A/]	.	.	.	.	.	8dd\L	.	.
.	8a/	.	.	.	.	.	.	.	.	.	.	.	8a\	.	.
.	8b/J	.	.	.	.	.	8d\	.	.	.	.	.	8b\J	.	.
=4	=4	=4	=4	=4	=4	=4	=4	=4	=4	=4	=4	=4	=4	=4	=4
2.C_ 2.CC/_	8cc/L	4.e\	.	[4.C/	-e	.	4.c\	.	.	4.e/)	.	.	8cc\L	.	.
.	8dd/	.	.	.	.	.	.	.	.	.	.	.	8dd\	.	.
.	8ee/J	.	.	.	.	.	.	.	.	.	.	.	8ee\J	.	.
.	4g/	4e\	.	4C/]	.	.	4c\	-son	.	4e/	-son	.	4g/	-son	.
.	8r	8ryy	.	8r	.	.	8r	.	.	8r	.	.	8r	.	.
=5	=5	=5	=5	=5	=5	=5	=5	=5	=5	=5	=5	=5	=5	=5	=5
2.C_ 2.CC/_	4cc/	4.d\	.	[2.C/	Ky-	.	4.G/	Ky-	.	4.e/	Ky-	.	(4cc\	Ky-	.
.	8b/	.	.	.	.	.	.	.	.	.	.	.	8b\	.	.
.	4a/	4.f\	.	.	.	.	4A/	.	.	4.f/	-ri-	.	4a\	.	.
.	8b/	.	.	.	.	.	8d\	.	.	.	.	.	8b\	.	.
*	*v	*v	*	*	*	*	*	*	*	*	*	*	*	*	*
=6	=6	=6	=6	=6	=6	=6	=6	=6	=6	=6	=6	=6	=6	=6
2.C_ 2.CC/_	4cc 4e\	.	2.C/_	.	.	4e\	.	.	4.e/	-e	.	4cc\)	.	.
.	8ee 8cc\	.	.	.	.	8c\	-ri-	.	.	.	.	8ee\	-ri-	.
.	[4.gg 4.ee\	.	.	.	.	4G/	-e	.	4.e/	e-	.	4gg\	-e	.
.	.	.	.	.	.	8G/	e-	.	.	.	.	8gg\	e-	.
=7	=7	=7	=7	=7	=7	=7	=7	=7	=7	=7	=7	=7	=7	=7
*	*^	*	*	*	*	*	*	*	*	*	*	*	*	*
2.C_ 2.CC/_	8gg/L]	4.a\	.	4.C/]	.	.	[4.A/	-ley-	.	(2.f/	-ley-	.	(8gg\L	-ley-	.
.	8ff/	.	.	.	.	.	.	.	.	.	.	.	8ff\	.	.
.	8ee/J	.	.	.	.	.	.	.	.	.	.	.	8ee\J	.	.
.	8dd/L	4.f\	.	4.C/	-ri-	.	4A/]	.	.	.	.	.	8dd\L	.	.
.	8a/	.	.	.	.	.	.	.	.	.	.	.	8a\	.	.
.	8b/J	.	.	.	.	.	8d\	.	.	.	.	.	8b\J	.	.
*	*v	*v	*	*	*	*	*	*	*	*	*	*	*	*	*
=8	=8	=8	=8	=8	=8	=8	=8	=8	=8	=8	=8	=8	=8	=8
4.C_ 4.CC/_	4.cc 4.e\	.	[4.C/	-e	.	4.c\	.	.	4.e/)	.	.	4.cc\)	.	.
8C] 8CC/]	8ccL 8e\	.	8C/]	.	.	8c\	-son	.	8e/	-son	.	8cc\	-son	.
8r	8g\	.	8r	.	.	8r	.	.	8r	.	.	8r	.	.
8r	8b\J	.	8r	.	.	8r	.	.	8r	.	.	8r	.	.
=9	=9	=9	=9	=9	=9	=9	=9	=9	=9	=9	=9	=9	=9	=9
[2.E [2.AA/	8ccL 8e/	.	[2.AA/	Ky-	.	(8A\L	Ky-	.	[2.e/	Ky-	.	(8cc\L	Ky-	.
.	8b 8d/	.	.	.	.	8B\	.	.	.	.	.	8b\	.	.
.	8aJ 8c/	.	.	.	.	8c\J	.	.	.	.	.	8a\J	.	.
.	4g#X 4B/	.	.	.	.	4d\)	.	.	.	.	.	4g#X/)	.	.
.	8b 8d/	.	.	.	.	8B\	-ri-	.	.	.	.	8b/	-ri-	.
!!LO:LB:g=original
=10	=10	=10	=10	=10	=10	=10	=10	=10	=10	=10	=10	=10	=10	=10
2.E_ 2.AA/_	4a 4c/	.	2.AA/_	.	.	4c\	-e	.	2.e/_	.	.	4a\	-e	.
.	8cc 8a\	.	.	.	.	8A\	e-	.	.	.	.	8cc\	e-	.
.	4ee 4g#X\	.	.	.	.	4G#X\	-ley-	.	.	.	.	4ee\	-ley-	.
.	8dd 8b\	.	.	.	.	8B\	-son	.	.	.	.	8dd\	-son	.
=11	=11	=11	=11	=11	=11	=11	=11	=11	=11	=11	=11	=11	=11	=11
2.E_ 2.AA/_	8ccL 8e/	.	4.AA/]	.	.	(8A/L	Ky-	.	2e/_	.	.	(8cc\L	Ky-	.
.	8b 8d/	.	.	.	.	8B/	.	.	.	.	.	8b\	.	.
.	8aJ 8c/	.	.	.	.	8c/J	.	.	.	.	.	8a\J	.	.
.	4g#X 4B/	.	4.AA/	-ri-	.	4d/)	.	.	.	.	.	4g#X\)	.	.
.	.	.	.	.	.	.	.	.	8e/]	.	.	.	.	.
.	8b 8d/	.	.	.	.	8B/	-ri-	.	8e/	-ri-	.	8b\	-ri-	.
=12	=12	=12	=12	=12	=12	=12	=12	=12	=12	=12	=12	=12	=12	=12
2.E_ 2.AA/_	2.a 2.c/	.	4.AA/	-e	.	4c\	-e	.	[2.e/	-e	.	2.a/	-e	.
.	.	.	.	.	.	8E/	e-	.	.	.	.	.	.	.
.	.	.	4.AA/	e-	.	4A\	-ley-	.	.	.	.	.	.	.
.	.	.	.	.	.	8c\	-son	.	.	.	.	.	.	.
=13	=13	=13	=13	=13	=13	=13	=13	=13	=13	=13	=13	=13	=13	=13
2.E_ 2.AA/_	8ccL 8e/	.	[2.AA/	-ley-	.	(8A\L	Ky-	.	2.e/_	Ky-	.	(8cc\L	Ky-	.
.	8b 8d/	.	.	.	.	8B\	.	.	.	.	.	8b\	.	.
.	8aJ 8c/	.	.	.	.	8c\J	.	.	.	.	.	8a\J	.	.
.	4g#X 4B/	.	.	.	.	4d\)	.	.	.	.	.	4g#X/)	.	.
.	8b 8d/	.	.	.	.	8B\	-ri-	.	.	.	.	8b/	-ri-	.
=14	=14	=14	=14	=14	=14	=14	=14	=14	=14	=14	=14	=14	=14	=14
2.E_ 2.AA/_	4a 4c/	.	2.AA/_	.	.	4c\	-e	.	2.e/_	.	.	4a\	-e	.
.	8cc 8a\	.	.	.	.	8A\	e-	.	.	.	.	8cc\	e-	.
.	4ee 4g#X\	.	.	.	.	4G#X\	-ley-	.	.	.	.	4ee\	-ley-	.
.	8dd 8b\	.	.	.	.	8B\	-son	.	.	.	.	8dd\	-son	.
=15	=15	=15	=15	=15	=15	=15	=15	=15	=15	=15	=15	=15	=15	=15
2.E] 2.AA/]	8ccL 8e/	.	2.AA/_	.	.	(8A\L	Ky-	.	4e/]	.	.	(8cc\L	Ky-	.
.	8b 8d/	.	.	.	.	8B\	.	.	.	.	.	8b\	.	.
.	8aJ 8c/	.	.	.	.	8c\J	.	.	8e/	-ri-	.	8a\J	.	.
.	4g#X 4B/	.	.	.	.	4d\)	.	.	4e/	-e	.	4g#X\)	.	.
.	8b 8d/	.	.	.	.	8B\	-ri-	.	8e/	e-	.	8b\	-ri-	.
=16	=16	=16	=16	=16	=16	=16	=16	=16	=16	=16	=16	=16	=16	=16
!	!	!	!	!	!	!LO:N:vis=4.	!	!	!	!	!	!	!	!
[4.A [>4.AA\	[4.a [4.c/	.	4.AA/]	.	.	4c\	-e	.	[4.e/	-ley-	.	4a/	-e	.
.	.	.	.	.	.	8c\	e-	.	.	.	.	8a/	e-	.
4A] 4AA\]	4a] 4c/]	.	4A\	.	.	4c\	-ley-	.	4e/]	.	.	4a/	-ley-	.
8G 8GG\	8b 8f/	.	8G\	-son	.	8d\	-son	.	8f/	-son	.	8b/	-son	.
=17	=17	=17	=17	=17	=17	=17	=17	=17	=17	=17	=17	=17	=17	=17
*	*^	*	*	*	*	*	*	*	*	*	*	*	*	*
[2.C [2.CC/	4cc/	4.e\	.	[2.C/	Ky-	.	(4.G/	Ky-	.	4.e/	Ky-	.	(4cc\	Ky-	.
.	8b/	.	.	.	.	.	.	.	.	.	.	.	8b\	.	.
.	4a/	4.f\	.	.	.	.	4A/	.	.	4.f/	-ri-	.	4a\	.	.
.	8b/	.	.	.	.	.	8d\	.	.	.	.	.	8b\	.	.
*	*v	*v	*	*	*	*	*	*	*	*	*	*	*	*	*
=18	=18	=18	=18	=18	=18	=18	=18	=18	=18	=18	=18	=18	=18	=18
2.C_ 2.CC/_	4cc 4e/	.	2.C/_	.	.	4e\)	.	.	4.e/	-e	.	4cc\)	.	.
.	8ee 8cc\	.	.	.	.	8c\	-ri-	.	.	.	.	8ee\	-ri-	.
.	[4.gg 4.ee\	.	.	.	.	4G/	-e	.	4.e/	e-	.	4gg\	-e	.
.	.	.	.	.	.	8G/	e-	.	.	.	.	8gg\	e-	.
=19	=19	=19	=19	=19	=19	=19	=19	=19	=19	=19	=19	=19	=19	=19
*	*^	*	*	*	*	*	*	*	*	*	*	*	*	*
2.C_ 2.CC/_	8gg/L]	4.a\	.	4.C/]	.	.	[4.A/	-ley-	.	(2.f/	-ley-	.	8gg\L	-ley-	.
.	8ff/	.	.	.	.	.	.	.	.	.	.	.	8ff\	.	.
.	8ee/J	.	.	.	.	.	.	.	.	.	.	.	8ee\J	.	.
.	8dd/L	4.f\	.	4.C/	-ri-	.	4A/]	.	.	.	.	.	8dd\L	.	.
.	8a/	.	.	.	.	.	.	.	.	.	.	.	8a\	.	.
.	8b/J	.	.	.	.	.	8d\	.	.	.	.	.	8b\J	.	.
!!LO:PB:g=original
=20	=20	=20	=20	=20	=20	=20	=20	=20	=20	=20	=20	=20	=20	=20	=20
2.C_ 2.CC/_	8cc/L	(4.e\	.	[4.C/	-e	.	4.c\	.	.	4.e/)	.	.	8cc\L	.	.
.	8dd/	.	.	.	.	.	.	.	.	.	.	.	8dd\	.	.
.	8ee/J	.	.	.	.	.	.	.	.	.	.	.	8ee\J	.	.
.	4g/	4e\)	.	4C/]	.	.	4c\	-son	.	4e/	-son	.	4g/	-son	.
.	8r	8ryy	.	8r	.	.	8r	.	.	8r	.	.	8r	.	.
=21	=21	=21	=21	=21	=21	=21	=21	=21	=21	=21	=21	=21	=21	=21	=21
2.C_ 2.CC/_	4cc/	4.e\	.	[2.C/	Ky-	.	(4.G/	Ky-	.	4.e/	Ky-	.	(4cc\	Ky-	.
.	8b/	.	.	.	.	.	.	.	.	.	.	.	8b\	.	.
.	4a/	4.f\	.	.	.	.	4A/	.	.	4.f/	-ri-	.	4a\	.	.
.	8b/	.	.	.	.	.	8d/	.	.	.	.	.	8b\	.	.
*	*v	*v	*	*	*	*	*	*	*	*	*	*	*	*	*
=22	=22	=22	=22	=22	=22	=22	=22	=22	=22	=22	=22	=22	=22	=22
!LO:N:vis=2	!	!	!	!	!	!	!	!	!	!	!	!	!	!
2.C_ 2.CC/_	4cc 4e\	.	2.C/_	.	.	4e/)	.	.	4.e/	-e	.	4cc\)	.	.
.	8ee 8cc\	.	.	.	.	8c/	-ri-	.	.	.	.	8ee\	-ri-	.
.	[4.gg 4.ee\	.	.	.	.	4G/	-e	.	4.e/	e-	.	4gg\	-e	.
.	.	.	.	.	.	8G/	e-	.	.	.	.	8gg\	e-	.
=23	=23	=23	=23	=23	=23	=23	=23	=23	=23	=23	=23	=23	=23	=23
*	*^	*	*	*	*	*	*	*	*	*	*	*	*	*
2.C_ 2.CC/_	8gg/L]	4.a\	.	4.C/]	.	.	[4.A/	-ley-	.	(2.f/	-ley-	.	8gg\L	-ley-	.
.	8ff/	.	.	.	.	.	.	.	.	.	.	.	8ff\	.	.
.	8ee/J	.	.	.	.	.	.	.	.	.	.	.	8ee\J	.	.
.	8dd/L	4.f\	.	4.C/	-ri-	.	4A/]	.	.	.	.	.	8dd\L	.	.
.	8a/	.	.	.	.	.	.	.	.	.	.	.	8a\	.	.
.	8b/J	.	.	.	.	.	8d\	.	.	.	.	.	8b\J	.	.
*	*v	*v	*	*	*	*	*	*	*	*	*	*	*	*	*
=24	=24	=24	=24	=24	=24	=24	=24	=24	=24	=24	=24	=24	=24	=24
4.C_ 4.CC/_	[4.cc [4.e/	.	[4.C/	-e	.	4.c\	.	.	4.e/)	.	.	4.cc\	.	.
8C]L 8CC/]	8cc] 8e/]	.	8C/]	.	.	8c\	-son	.	8e/	-son	.	8cc\	-son	.
8C/	8r	.	8r	.	.	8r	.	.	8r	.	.	8r	.	.
8E/J	8r	.	8r	.	.	8r	.	.	8r	.	.	8r	.	.
=25	=25	=25	=25	=25	=25	=25	=25	=25	=25	=25	=25	=25	=25	=25
!	!	!LO:DY:rj	!	!	!	!	!	!	!	!	!LO:DY:b:rj	!	!	!LO:DY:b:rj
[2.G [2.GG/	(8B/L	ff	2.r	.	.	2.r	.	.	(4dd\	.	f	(4dd\	Chry-	f
.	8g/	.	.	.	.	.	.	.	.	.	.	.	.	.
.	8d/J)	.	.	.	.	.	.	.	8ee\)	.	.	8ee\)	.	.
.	(8B/L	.	.	.	.	.	.	.	4dd\	.	.	4dd\	-ste	.
.	8g/	.	.	.	.	.	.	.	.	.	.	.	.	.
.	8d/J)	.	.	.	.	.	.	.	8b\	.	.	8b\	e-	.
=26	=26	=26	=26	=26	=26	=26	=26	=26	=26	=26	=26	=26	=26	=26
2.G_ 2.GG/_	(8c/L	.	2.r	.	.	2.r	.	.	(8a/L	.	.	(8a/L	-ley-	.
.	8f#X/	.	.	.	.	.	.	.	8b/	.	.	8b/	.	.
.	8d/J)	.	.	.	.	.	.	.	8a/J	.	.	8a/J	.	.
.	(8B/L	.	.	.	.	.	.	.	4g/)	.	.	4g/)	.	.
.	8g/	.	.	.	.	.	.	.	.	.	.	.	.	.
.	8d/J)	.	.	.	.	.	.	.	8b\	.	.	8b/	-son	.
=27	=27	=27	=27	=27	=27	=27	=27	=27	=27	=27	=27	=27	=27	=27
2.G_ 2.GG/_	(8B/L	.	2.r	.	.	2.r	.	.	(4dd\	.	.	(4dd\	Chri-	.
.	8g/	.	.	.	.	.	.	.	.	.	.	.	.	.
.	8d/J)	.	.	.	.	.	.	.	8ee\)	.	.	8ee\)	.	.
.	(8B/L	.	.	.	.	.	.	.	4dd\	.	.	4dd\	-ste	.
.	8g/	.	.	.	.	.	.	.	.	.	.	.	.	.
.	8d/J)	.	.	.	.	.	.	.	8b\	.	.	8b\	e-	.
=28	=28	=28	=28	=28	=28	=28	=28	=28	=28	=28	=28	=28	=28	=28
2.G_ 2.GG/_	(8c/L	.	2.r	.	.	2.r	.	.	8a\L	.	.	8a\L	-ley-	.
.	8f#X/	.	.	.	.	.	.	.	8cc\	.	.	8cc\	.	.
.	8d/J)	.	.	.	.	.	.	.	8b\J	.	.	8b\J	.	.
.	(8B/L	.	.	.	.	.	.	.	4g/	.	.	4g/	-son	.
.	8g/	.	.	.	.	.	.	.	.	.	.	.	.	.
.	8d/J)	.	.	.	.	.	.	.	8r	.	.	8r	.	.
=29	=29	=29	=29	=29	=29	=29	=29	=29	=29	=29	=29	=29	=29	=29
2.G_ 2.GG/_	(8B/L	.	(4d\	.	.	(4d\	.	.	(4dd\	.	.	(4dd\	Chry-	.
.	8g/	.	.	.	.	.	.	.	.	.	.	.	.	.
.	8d/J)	.	8e\)	.	.	8e\)	.	.	8ee\)	.	.	8ee\)	.	.
.	(8B/L	.	4d\	.	.	4d\	.	.	4dd\	.	.	4dd\	-ste	.
.	8g/	.	.	.	.	.	.	.	.	.	.	.	.	.
.	8d/J)	.	8B\	.	.	8B\	.	.	8b\	.	.	8b\	e	.
!!LO:LB:g=original
=30	=30	=30	=30	=30	=30	=30	=30	=30	=30	=30	=30	=30	=30	=30
2.G_ 2.GG/_	(8c/L	.	(8A\L	.	.	(8A/L	.	.	(8a/L	.	.	(8a/L	ley-	.
.	8f#X/	.	8B\	.	.	8B/	.	.	8b/	.	.	8b/	.	.
.	8d/J)	.	8A\J	.	.	8A/J	.	.	8a/J	.	.	8a/J	.	.
.	(8B/L	.	4G\)	.	.	4G/)	.	.	4g/)	.	.	4g/)	.	.
.	8g/	.	.	.	.	.	.	.	.	.	.	.	.	.
.	8d/J)	.	8B\	.	.	8B/	.	.	8b/	.	.	8b/	-son	.
=31	=31	=31	=31	=31	=31	=31	=31	=31	=31	=31	=31	=31	=31	=31
2.G_ 2.GG/_	(8B/L	.	(4d\	.	.	(4d\	.	.	(4dd\	.	.	(4dd\	Chry-	.
.	8g/	.	.	.	.	.	.	.	.	.	.	.	.	.
.	8d/J)	.	8e\)	.	.	8e\)	.	.	8ee\)	.	.	8ee\)	.	.
.	(8B/L	.	4d\	.	.	4d\	.	.	4dd\	.	.	4dd\	-ste	.
.	8g/	.	.	.	.	.	.	.	.	.	.	.	.	.
.	8d/J)	.	8B\	.	.	8B\	.	.	8b\	.	.	8b\	e-	.
=32	=32	=32	=32	=32	=32	=32	=32	=32	=32	=32	=32	=32	=32	=32
2.G_ 2.GG/_	(8c/L	.	8A\L	.	.	8A/L	.	.	8a/L	.	.	8a/L	-ley-	.
.	8f#X/	.	8c\	.	.	8c/	.	.	8cc/	.	.	8cc/	.	.
.	8d/J)	.	8B\J	.	.	8B/J	.	.	8b/J	.	.	8b/J	.	.
.	(8B/L	.	4G\	.	.	4G/	.	.	4g/	.	.	4g/	.	.
.	8g/	.	.	.	.	.	.	.	.	.	.	.	.	.
.	8d/J)	.	8G\	.	.	8G/	.	.	8g/	.	.	8g/	-son	.
=33	=33	=33	=33	=33	=33	=33	=33	=33	=33	=33	=33	=33	=33	=33
*	*	*	*2\right	*	*	*	*	*	*	*	*	*	*	*
2.G_ 2.GG/_	(8B/L	.	[2.G\	ley-	.	4B\	.	.	[2.g/	.	.	4ff\	e-	.
.	8g/	.	.	.	.	.	.	.	.	.	.	.	.	.
.	8c/J)	.	.	.	.	8c\	.	.	.	.	.	8ee\	-ley-	.
.	(8d/L	.	.	.	.	4d\	.	.	.	.	.	4dd\	.	.
.	8g/	.	.	.	.	.	.	.	.	.	.	.	.	.
.	8e/J)	.	.	.	.	8e\	.	.	.	.	.	8cc\	.	.
=34	=34	=34	=34	=34	=34	=34	=34	=34	=34	=34	=34	=34	=34	=34
2.G_ 2.GG/_	(8fn/L	.	2.G\_	.	.	4f\	.	.	2.g/_	.	.	4b\	.	.
.	8g/	.	.	.	.	.	.	.	.	.	.	.	.	.
.	8d/J)	.	.	.	.	8d\	.	.	.	.	.	8dd\	.	.
.	(8e/L	.	.	.	.	4e\	.	.	.	.	.	4cc\	-son	.
.	8g/	.	.	.	.	.	.	.	.	.	.	.	.	.
.	8c/J)	.	.	.	.	8c\	.	.	.	.	.	8ee\	e-	.
=35	=35	=35	=35	=35	=35	=35	=35	=35	=35	=35	=35	=35	=35	=35
2.G_ 2.GG/_	(8B/L	.	2.G\]	.	.	4B\	.	.	2.g/_	.	.	4ff\	-ley-	.
.	8g/	.	.	.	.	.	.	.	.	.	.	.	.	.
.	8c/J)	.	.	.	.	8c\	.	.	.	.	.	8ee\	.	.
.	(8d/L	.	.	.	.	4d\	.	.	.	.	.	4dd\	.	.
.	8g/	.	.	.	.	.	.	.	.	.	.	.	.	.
.	8e/J)	.	.	.	.	8e\	.	.	.	.	.	8cc\	.	.
=36	=36	=36	=36	=36	=36	=36	=36	=36	=36	=36	=36	=36	=36	=36
!	!	!	!LO:N:vis=4	!	!	!	!	!	!	!	!	!	!	!
4.G] 4.GG\]	4.g 4.d 4.B;/	.	4.G;\	-son	.	4.d;\	.	.	4.g;/]	.	.	4.gg;\	-son	.
4r	8g/L	.	4r	.	.	4r	.	.	4r	.	.	4r	.	.
.	8a/	.	.	.	.	.	.	.	.	.	.	.	.	.
8r	8b/J	.	8r	.	.	8r	.	.	8r	.	.	8r	.	.
=37	=37	=37	=37	=37	=37	=37	=37	=37	=37	=37	=37	=37	=37	=37
*	*^	*	*	*	*	*	*	*	*	*	*	*	*	*
[2.C [2.CC/	4cc/	4.e\	.	[2.C/	Ky-	.	(4.G/	Ky-	.	4.e/	Ky-	.	(4cc\	Ky-	.
.	8b/	.	.	.	.	.	.	.	.	.	.	.	8b\	.	.
.	4a/	4.f\	.	.	.	.	4A\	.	.	4.f/	-ri-	.	4a\	.	.
.	8b/	.	.	.	.	.	8d\	.	.	.	.	.	8b\	.	.
*	*v	*v	*	*	*	*	*	*	*	*	*	*	*	*	*
=38	=38	=38	=38	=38	=38	=38	=38	=38	=38	=38	=38	=38	=38	=38
2.C_ 2.CC/_	4cc 4e\	.	2.C/_	.	.	4e\)	.	.	4.e/	-e	.	4cc\)	.	.
.	8ee 8cc\	.	.	.	.	8c\	-ri-	.	.	.	.	8ee\	-ri-	.
.	4gg 4ee\	.	.	.	.	4G/	-e	.	4.e/	e-	.	4gg\	-e	.
.	[8gg 8ee\	.	.	.	.	8G/	e-	.	.	.	.	8gg\	e-	.
=39	=39	=39	=39	=39	=39	=39	=39	=39	=39	=39	=39	=39	=39	=39
*	*^	*	*	*	*	*	*	*	*	*	*	*	*	*
!LO:N:vis=2	!	!	!	!	!	!	!	!	!	!	!	!	!	!	!
2.C_ 2.CC/_	8gg\L]	4.a\	.	4.C/]	.	.	[4.A/	-ley-	.	(2.f/	-ley-	.	8gg\L	-ley-	.
.	8f\	.	.	.	.	.	.	.	.	.	.	.	8ff\	.	.
.	8e\J	.	.	.	.	.	.	.	.	.	.	.	8ee\J	.	.
.	8dd/L	4.f\	.	4.C/	-ri-	.	4A/]	.	.	.	.	.	8dd\L	.	.
.	8a/	.	.	.	.	.	.	.	.	.	.	.	8a\	.	.
.	8b/J	.	.	.	.	.	8d\	.	.	.	.	.	8b\J	.	.
=40	=40	=40	=40	=40	=40	=40	=40	=40	=40	=40	=40	=40	=40	=40	=40
2.C_ 2.CC/_	8cc/L	[4.e\	.	[4.C/	-e	.	4.c\	.	.	4.e/)	.	.	8cc\L	.	.
.	8dd/	.	.	.	.	.	.	.	.	.	.	.	8dd\	.	.
.	8ee/J	.	.	.	.	.	.	.	.	.	.	.	8ee\J	.	.
.	4g/	4e\]	.	4C/]	.	.	4c\	-son	.	4e/	-son	.	4g/	-son	.
.	8r	8ryy	.	8r	.	.	8r	.	.	8r	.	.	8r	.	.
!!LO:PB:g=original
=41	=41	=41	=41	=41	=41	=41	=41	=41	=41	=41	=41	=41	=41	=41	=41
2.C_ 2.CC/_	4cc/	4.e\	.	[2.C/	Ky-	.	(4.G/	Ky-	.	4.e/	Ky-	.	(4cc\	Ky-	.
.	8b/	.	.	.	.	.	.	.	.	.	.	.	8b\	.	.
.	4a/	4.f\	.	.	.	.	4A\	.	.	4.f/	-ri-	.	4a\	.	.
.	8b/	.	.	.	.	.	8d\	.	.	.	.	.	8b\	.	.
*	*v	*v	*	*	*	*	*	*	*	*	*	*	*	*	*
=42	=42	=42	=42	=42	=42	=42	=42	=42	=42	=42	=42	=42	=42	=42
2.C_ 2.CC/_	4cc 4e\	.	2.C/_	.	.	4e\)	.	.	4.e/	-e	.	4cc\)	.	.
.	8ee 8cc\	.	.	.	.	8c\	-ri-	.	.	.	.	8ee\	-ri-	.
.	4gg 4ee\	.	.	.	.	4G/	-e	.	4.e/	e-	.	4gg\	-e	.
.	[8gg 8ee\	.	.	.	.	8G/	e-	.	.	.	.	8gg\	e-	.
=43	=43	=43	=43	=43	=43	=43	=43	=43	=43	=43	=43	=43	=43	=43
*	*^	*	*	*	*	*	*	*	*	*	*	*	*	*
2.C_ 2.CC/_	8gg]L/	4.a\	.	4C/]	.	.	4.A/	-ley-	.	4.f/	-ley-	.	8gg\L	-ley-	.
.	8ff/	.	.	.	.	.	.	.	.	.	.	.	8ff\	.	.
.	8ee/J	.	.	8C/	-ri-	.	.	.	.	.	.	.	8ee\J	.	.
.	8dd/L	4.f\	.	4C/	-e	.	4A/	-son	.	4f/	-son	.	(8dd\L	-son	.
.	8a/	.	.	.	.	.	.	.	.	.	.	.	8a\)	.	.
.	8b/J	.	.	8C/	e-	.	8d\	e	.	8f/	e-	.	8b'\J	e-	.
*	*v	*v	*	*	*	*	*	*	*	*	*	*	*	*	*
=44	=44	=44	=44	=44	=44	=44	=44	=44	=44	=44	=44	=44	=44	=44
2.C_ 2.CC/_	[2.cc [2.e/	.	[2.C/	-ley-	.	[4.c\	ley-	.	[2.e/	-ley-	.	[4.cc\	-ley-	.
.	.	.	.	.	.	8c\L]	.	.	.	.	.	8cc\L]	.	.
.	.	.	.	.	.	8G\	.	.	.	.	.	8g\	.	.
.	.	.	.	.	.	8e\J	.	.	.	.	.	8ee\J	.	.
=45	=45	=45	=45	=45	=45	=45	=45	=45	=45	=45	=45	=45	=45	=45
2.C_ 2.CC/_	2.cc_ 2.e/_	.	2.C/_	.	.	[4.c\	.	.	2.e/_	.	.	[4.cc\	.	.
.	.	.	.	.	.	8c\L]	.	.	.	.	.	8cc\L]	.	.
.	.	.	.	.	.	8G\	.	.	.	.	.	8g\	.	.
.	.	.	.	.	.	8e\J	.	.	.	.	.	8ee\J	.	.
=46	=46	=46	=46	=46	=46	=46	=46	=46	=46	=46	=46	=46	=46	=46
2.C_ 2.CC/_	2.cc_ 2.e/_	.	2.C/_	.	.	8c\L	.	.	2.e/_	.	.	8cc\L	.	.
.	.	.	.	.	.	8G\	.	.	.	.	.	8g\	.	.
.	.	.	.	.	.	8e\J	.	.	.	.	.	8ee\J	.	.
.	.	.	.	.	.	8c\L	.	.	.	.	.	8cc\L	.	.
.	.	.	.	.	.	8g\	.	.	.	.	.	8gg\	.	.
.	.	.	.	.	.	8e\J	.	.	.	.	.	8ee\J	.	.
=47	=47	=47	=47	=47	=47	=47	=47	=47	=47	=47	=47	=47	=47	=47
*	*	*	*	*	*	*2\right	*	*	*	*	*	*2\right	*	*
2.C] 2.CC/]	2.cc] 2.e/]	.	2.C/]	.	.	2.c\	-[[son]]-	.	2.e/]	.	.	2.cc\	-son	.
=48	=48	=48	=48	=48	=48	=48	=48	=48	=48	=48	=48	=48	=48	=48
4.C 4.CC;/	4.cc 4.e;/	.	4.C;/	-son	.	4.c;\	-son	.	4.e;/	-son	.	4.cc;\	.	.
4r	4r	.	4r	.	.	4r	.	.	4r	.	.	4r	.	.
8r	8r	.	8r	.	.	8r	.	.	8r	.	.	8r	.	.
==	==	==	==	==	==	==	==	==	==	==	==	==	==	==
*-	*-	*-	*-	*-	*-	*-	*-	*-	*-	*-	*-	*-	*-	*-
!!!system-decoration: s1,s2,s3,s4[(s5,s6)]
!!!RDF**kern: < = below
!!!ENC: Anastazja Marusiak
!!!END: 2021-05-13
!!!ENC: Marta Lawrence
!!!END: 2021-05-26
